; generated by PrusaSlicer 2.1.1+win64 on 2020-04-07 at 14:46:37 UTC

; 

; external perimeters extrusion width = 0.45mm
; perimeters extrusion width = 0.45mm
; infill extrusion width = 0.45mm
; solid infill extrusion width = 0.45mm
; top infill extrusion width = 0.40mm
; support material extrusion width = 0.35mm
; first layer extrusion width = 0.42mm

M73 P0 R212
M73 Q0 S214
M201 X1000 Y1000 Z1000 E5000 ; sets maximum accelerations, mm/sec^2
M203 X200 Y200 Z12 E120 ; sets maximum feedrates, mm/sec
M204 P1250 R1250 T1250 ; sets acceleration (P, T) and retract acceleration (R), mm/sec^2
M205 X8.00 Y8.00 Z0.40 E4.50 ; sets the jerk limits, mm/sec
M205 S0 T0 ; sets the minimum extruding and travel feed rate, mm/sec
M107
M862.3 P "MK3" ; printer model check
M862.1 P0.4 ; nozzle diameter check
M115 U3.8.1 ; tell printer latest fw version
G90 ; use absolute coordinates
M83 ; extruder relative mode
M104 S215 ; set extruder temp
M140 S60 ; set bed temp
M190 S60 ; wait for bed temp
M109 S215 ; wait for extruder temp
G28 W ; home all without mesh bed level
G80 ; mesh bed leveling
G1 Y-3.0 F1000.0 ; go outside print area
G92 E0.0
G1 X60.0 E9.0 F1000.0 ; intro line
M73 Q0 S214
M73 P0 R212
G1 X100.0 E12.5 F1000.0 ; intro line
G92 E0.0
M221 S95
G21 ; set units to millimeters
G90 ; use absolute coordinates
M83 ; use relative distances for extrusion
M900 K30 ; Filament gcode
;BEFORE_LAYER_CHANGE
G92 E0.0
;0.2


G1 E-0.80000 F2100.00000
G1 Z0.600 F10800.000
;AFTER_LAYER_CHANGE
;0.2
G1 X189.590 Y107.424
G1 Z0.200
G1 E0.80000 F2100.00000
M204 S1000
G1 F1200
G1 X188.867 Y107.977 E0.02855
G1 X140.612 Y130.101 E1.66445
G1 X140.006 Y130.189 E0.01919
G1 X110.000 Y130.189 E0.94082
G1 X109.376 Y130.098 E0.01976
G1 X61.797 Y107.977 E1.64516
G1 X61.204 Y107.562 E0.02270
G1 X60.779 Y106.976 E0.02270
G1 X60.609 Y106.510 E0.01555
G1 X60.549 Y106.018 E0.01555
G1 X60.549 Y76.535 E0.92441
G1 X60.638 Y75.926 E0.01930
G1 X60.892 Y75.365 E0.01930
G1 X61.223 Y74.962 E0.01635
G1 X61.637 Y74.651 E0.01623
G1 X62.115 Y74.444 E0.01635
G1 X62.629 Y74.356 E0.01635
G1 X81.595 Y74.354 E0.59465
G1 X187.931 Y74.523 E3.33411
G1 X188.551 Y74.614 E0.01964
G1 X189.160 Y74.903 E0.02112
G1 X189.651 Y75.363 E0.02112
G1 X189.980 Y75.951 E0.02112
G1 X190.114 Y76.611 E0.02112
G1 X190.116 Y106.008 E0.92171
G1 X190.026 Y106.624 E0.01953
G1 X189.619 Y107.371 E0.02667
G1 F8640
G1 X188.867 Y107.977 E-0.22300
G1 X186.753 Y108.946 E-0.53700
G1 E-0.04000 F2100.00000
G1 Z0.800 F10800.000
G1 X131.871 Y119.779
G1 Z0.200
G1 E0.80000 F2100.00000
G1 F1200
G1 X131.871 Y116.434 E0.10488
G1 X131.597 Y116.228 E0.01073
G1 X131.253 Y116.056 E0.01206
G1 X131.116 Y116.017 E0.00445
G1 X131.116 Y119.983 E0.12434
G1 X130.883 Y120.049 E0.00761
G1 X130.500 Y120.085 E0.01206
G1 X130.362 Y120.072 E0.00434
G1 X130.362 Y115.928 E0.12993
G1 X130.117 Y115.951 E0.00773
G1 X129.747 Y116.056 E0.01206
G1 X129.608 Y116.125 E0.00486
G1 X129.608 Y119.875 E0.11757
G1 X129.403 Y119.772 E0.00720
G1 X129.096 Y119.541 E0.01206
G1 X128.854 Y119.276 E0.01124
G1 X128.854 Y116.473 E0.08789
G1 F8640
G1 X128.854 Y119.276 E-0.64724
G1 X129.096 Y119.541 E-0.08280
G1 X129.199 Y119.619 E-0.02996
G1 E-0.04000 F2100.00000
G1 Z0.800 F10800.000
G1 X121.312 Y119.338
G1 Z0.200
G1 E0.80000 F2100.00000
G1 F1200
G1 X121.312 Y116.984 E0.07382
G1 X121.164 Y116.744 E0.00886
G1 X120.904 Y116.459 E0.01206
G1 X120.558 Y116.208 E0.01341
G1 X120.558 Y119.792 E0.11237
G1 X120.253 Y119.944 E0.01069
G1 X119.804 Y120.057 E0.01451
G1 X119.804 Y115.943 E0.12896
G1 X119.500 Y115.915 E0.00958
G1 X119.050 Y115.970 E0.01421
G1 X119.050 Y120.030 E0.12731
G1 X118.747 Y119.944 E0.00988
G1 X118.403 Y119.772 E0.01206
G1 X118.296 Y119.692 E0.00420
G1 X118.296 Y116.308 E0.10609
G1 X118.096 Y116.459 E0.00787
G1 X117.836 Y116.744 E0.01206
G1 X117.634 Y117.071 E0.01206
G1 X117.542 Y117.309 E0.00801
G1 X117.542 Y119.103 E0.05624
G1 F8640
G1 X117.542 Y117.309 E-0.41414
G1 X117.634 Y117.071 E-0.05898
G1 X117.836 Y116.744 E-0.08883
G1 X118.096 Y116.459 E-0.08883
G1 X118.296 Y116.308 E-0.05793
G1 X118.296 Y116.530 E-0.05130
G1 E-0.04000 F2100.00000
G1 Z0.800 F10800.000
G1 X127.424 Y118.285
G1 Z0.200
G1 E0.80000 F2100.00000
G1 F1200
G1 X127.424 Y117.715 E0.01788
G1 X127.528 Y117.154 E0.01788
G1 X127.734 Y116.623 E0.01788
G1 X128.034 Y116.138 E0.01788
G1 X128.419 Y115.717 E0.01788
G1 X128.874 Y115.373 E0.01788
G1 X129.384 Y115.119 E0.01788
G1 X129.932 Y114.963 E0.01788
G1 X130.500 Y114.910 E0.01787
G1 X131.068 Y114.963 E0.01788
G1 X131.616 Y115.119 E0.01788
G1 X132.126 Y115.373 E0.01788
G1 X132.581 Y115.717 E0.01788
G1 X132.966 Y116.138 E0.01788
G1 X133.266 Y116.623 E0.01788
G1 X133.472 Y117.154 E0.01788
G1 X133.576 Y117.715 E0.01788
G1 X133.576 Y118.285 E0.01788
G1 X133.472 Y118.846 E0.01788
G1 X133.266 Y119.377 E0.01788
G1 X132.966 Y119.862 E0.01788
G1 X132.581 Y120.283 E0.01788
G1 X132.126 Y120.627 E0.01788
G1 X131.616 Y120.881 E0.01788
G1 X131.068 Y121.037 E0.01788
G1 X130.500 Y121.090 E0.01788
G1 X129.932 Y121.037 E0.01788
G1 X129.384 Y120.881 E0.01788
G1 X128.874 Y120.627 E0.01788
G1 X128.419 Y120.283 E0.01788
G1 X128.034 Y119.862 E0.01788
G1 X127.734 Y119.377 E0.01788
G1 X127.528 Y118.846 E0.01788
G1 X127.435 Y118.344 E0.01600
G1 X127.805 Y118.275 F10800.000
G1 F1200
G1 X127.801 Y117.750 E0.01646
G1 X127.893 Y117.258 E0.01569
G1 X128.073 Y116.792 E0.01569
G1 X128.337 Y116.366 E0.01569
G1 X128.674 Y115.997 E0.01569
G1 X129.073 Y115.695 E0.01569
G1 X129.521 Y115.472 E0.01569
G1 X130.002 Y115.335 E0.01569
G1 X130.500 Y115.289 E0.01568
G1 X130.998 Y115.335 E0.01569
G1 X131.479 Y115.472 E0.01569
G1 X131.927 Y115.695 E0.01569
G1 X132.326 Y115.997 E0.01569
G1 X132.663 Y116.366 E0.01569
G1 X132.927 Y116.792 E0.01569
G1 X133.107 Y117.258 E0.01569
G1 X133.199 Y117.750 E0.01569
G1 X133.199 Y118.250 E0.01569
G1 X133.107 Y118.742 E0.01569
G1 X132.927 Y119.208 E0.01569
G1 X132.663 Y119.634 E0.01569
G1 X132.326 Y120.003 E0.01569
G1 X131.927 Y120.305 E0.01569
G1 X131.479 Y120.528 E0.01569
G1 X130.998 Y120.665 E0.01569
G1 X130.500 Y120.711 E0.01569
G1 X130.002 Y120.665 E0.01569
G1 X129.521 Y120.528 E0.01569
G1 X129.073 Y120.305 E0.01569
G1 X128.674 Y120.003 E0.01569
G1 X128.337 Y119.634 E0.01569
G1 X128.073 Y119.208 E0.01569
G1 X127.893 Y118.742 E0.01569
G1 X127.816 Y118.334 E0.01302
G1 X127.441 Y118.110 F10800.000
G1 F8640
G1 X127.801 Y117.750 E-0.13486
G1 X127.893 Y117.258 E-0.11551
G1 X128.073 Y116.792 E-0.11551
G1 X128.337 Y116.366 E-0.11551
G1 X128.674 Y115.997 E-0.11551
G1 X129.073 Y115.695 E-0.11551
G1 X129.257 Y115.603 E-0.04758
G1 E-0.04000 F2100.00000
G1 Z0.800 F10800.000
G1 X122.576 Y118.285
G1 Z0.200
G1 E0.80000 F2100.00000
G1 F1200
G1 X122.472 Y118.846 E0.01788
G1 X122.266 Y119.377 E0.01788
G1 X121.966 Y119.862 E0.01788
G1 X121.581 Y120.283 E0.01788
G1 X121.126 Y120.627 E0.01788
G1 X120.616 Y120.881 E0.01788
G1 X120.068 Y121.037 E0.01788
G1 X119.500 Y121.090 E0.01788
G1 X118.932 Y121.037 E0.01788
G1 X118.384 Y120.881 E0.01788
G1 X117.874 Y120.627 E0.01788
G1 X117.419 Y120.283 E0.01788
G1 X117.034 Y119.862 E0.01788
G1 X116.734 Y119.377 E0.01788
G1 X116.528 Y118.846 E0.01788
G1 X116.424 Y118.285 E0.01788
G1 X116.424 Y117.715 E0.01788
G1 X116.528 Y117.154 E0.01788
G1 X116.734 Y116.623 E0.01788
G1 X117.034 Y116.138 E0.01788
G1 X117.419 Y115.717 E0.01788
G1 X117.874 Y115.373 E0.01788
G1 X118.384 Y115.119 E0.01788
G1 X118.932 Y114.963 E0.01788
G1 X119.500 Y114.910 E0.01787
G1 X120.068 Y114.963 E0.01788
G1 X120.616 Y115.119 E0.01788
G1 X121.126 Y115.373 E0.01788
G1 X121.581 Y115.717 E0.01788
G1 X121.966 Y116.138 E0.01788
G1 X122.266 Y116.623 E0.01788
G1 X122.472 Y117.154 E0.01788
G1 X122.576 Y117.715 E0.01788
G1 X122.576 Y118.225 E0.01600
G1 X122.199 Y118.225 F10800.000
G1 F1200
G1 X122.107 Y118.742 E0.01646
G1 X121.927 Y119.208 E0.01569
G1 X121.663 Y119.634 E0.01569
G1 X121.326 Y120.003 E0.01569
G1 X120.927 Y120.305 E0.01569
G1 X120.479 Y120.528 E0.01569
G1 X119.998 Y120.665 E0.01569
G1 X119.500 Y120.711 E0.01569
G1 X119.002 Y120.665 E0.01569
G1 X118.521 Y120.528 E0.01569
G1 X118.073 Y120.305 E0.01569
G1 X117.674 Y120.003 E0.01569
G1 X117.337 Y119.634 E0.01569
G1 X117.073 Y119.208 E0.01569
G1 X116.893 Y118.742 E0.01569
G1 X116.801 Y118.250 E0.01569
G1 X116.801 Y117.750 E0.01569
G1 X116.893 Y117.258 E0.01569
G1 X117.073 Y116.792 E0.01569
G1 X117.337 Y116.366 E0.01569
G1 X117.674 Y115.997 E0.01569
G1 X118.073 Y115.695 E0.01569
G1 X118.521 Y115.472 E0.01569
G1 X119.002 Y115.335 E0.01569
G1 X119.500 Y115.289 E0.01568
G1 X119.998 Y115.335 E0.01569
G1 X120.479 Y115.472 E0.01569
G1 X120.927 Y115.695 E0.01569
G1 X121.326 Y115.997 E0.01569
G1 X121.663 Y116.366 E0.01569
G1 X121.927 Y116.792 E0.01569
G1 X122.107 Y117.258 E0.01569
G1 X122.199 Y117.750 E0.01569
G1 X122.199 Y118.165 E0.01302
G1 X122.527 Y118.454 F10800.000
G1 F8640
G1 X122.107 Y118.742 E-0.13487
G1 X121.927 Y119.208 E-0.11551
G1 X121.663 Y119.634 E-0.11551
G1 X121.326 Y120.003 E-0.11551
G1 X120.927 Y120.305 E-0.11551
G1 X120.479 Y120.528 E-0.11551
G1 X120.281 Y120.584 E-0.04758
G1 E-0.04000 F2100.00000
G1 Z0.800 F10800.000
G1 X110.587 Y127.413
G1 Z0.200
G1 E0.80000 F2100.00000
G1 F1200
G1 X110.587 Y108.587 E0.59027
G1 X139.413 Y108.587 E0.90381
G1 X139.413 Y127.413 E0.59027
G1 X110.647 Y127.413 E0.90193
G1 X110.210 Y127.790 F10800.000
G1 F1200
G1 X110.210 Y108.210 E0.61392
G1 X139.790 Y108.210 E0.92746
G1 X139.790 Y127.790 E0.61392
G1 X110.270 Y127.790 E0.92558
G1 X110.339 Y127.411 F10800.000
G1 F8640
G1 X110.260 Y124.499 E-0.76000
G1 E-0.04000 F2100.00000
G1 Z0.800 F10800.000
G1 X111.468 Y127.300
G1 Z0.200
G1 E0.80000 F2100.00000
G1 F1200
G1 X110.870 Y126.701 E0.02673
G1 X110.870 Y126.164 E0.01697
G1 X111.836 Y127.130 E0.04315
G1 X112.373 Y127.130 E0.01697
G1 X110.870 Y125.627 E0.06715
G1 X110.870 Y125.090 E0.01697
G1 X112.910 Y127.130 E0.09114
G1 X113.447 Y127.130 E0.01697
G1 X110.870 Y124.553 E0.11514
G1 X110.870 Y124.015 E0.01697
G1 X113.985 Y127.130 E0.13914
G1 X114.522 Y127.130 E0.01697
G1 X110.870 Y123.478 E0.16313
G1 X110.870 Y122.941 E0.01697
G1 X115.059 Y127.130 E0.18713
G1 X115.596 Y127.130 E0.01697
G1 X110.870 Y122.404 E0.21113
G1 X110.870 Y121.866 E0.01697
G1 X116.134 Y127.130 E0.23512
G1 X116.671 Y127.130 E0.01697
G1 X110.870 Y121.329 E0.25912
G1 X110.870 Y120.792 E0.01697
G1 X117.208 Y127.130 E0.28312
G1 X117.745 Y127.130 E0.01697
G1 X110.870 Y120.255 E0.30711
G1 X110.870 Y119.718 E0.01697
G1 X118.282 Y127.130 E0.33111
G1 X118.820 Y127.130 E0.01697
G1 X110.870 Y119.180 E0.35511
G1 X110.870 Y118.643 E0.01697
G1 X119.357 Y127.130 E0.37910
G1 X119.894 Y127.130 E0.01697
G1 X110.870 Y118.106 E0.40310
G1 X110.870 Y117.569 E0.01697
G1 X120.431 Y127.130 E0.42710
G1 X120.968 Y127.130 E0.01697
G1 X110.870 Y117.032 E0.45110
G1 X110.870 Y116.494 E0.01697
G1 X121.506 Y127.130 E0.47509
G1 X122.043 Y127.130 E0.01697
G1 X110.870 Y115.957 E0.49909
G1 X110.870 Y115.420 E0.01697
G1 X122.580 Y127.130 E0.52309
G1 X123.117 Y127.130 E0.01697
G1 X110.870 Y114.883 E0.54708
G1 X110.870 Y114.346 E0.01697
G1 X123.824 Y127.300 E0.57866
G1 F8640
G1 X121.497 Y124.972 E-0.76000
G1 E-0.04000 F2100.00000
G1 Z0.800 F10800.000
G1 X129.317 Y120.974
G1 Z0.200
G1 E0.80000 F2100.00000
G1 F1200
G1 X135.473 Y127.130 E0.27499
G1 X136.010 Y127.130 E0.01697
G1 X130.229 Y121.348 E0.25826
G1 X130.500 Y121.374 E0.00861
G1 X130.766 Y121.349 E0.00845
G1 X136.548 Y127.130 E0.25824
G1 X137.085 Y127.130 E0.01697
G1 X131.237 Y121.283 E0.26120
G1 X131.656 Y121.164 E0.01373
G1 X137.622 Y127.130 E0.26651
G1 X138.159 Y127.130 E0.01697
G1 X132.023 Y120.994 E0.27409
G1 X132.276 Y120.868 E0.00892
G1 X132.366 Y120.800 E0.00358
G1 X138.696 Y127.130 E0.28276
G1 X139.130 Y127.130 E0.01370
G1 X139.130 Y127.027 E0.00327
G1 X132.672 Y120.569 E0.28846
G1 X132.773 Y120.493 E0.00397
G1 X132.945 Y120.304 E0.00807
G1 X139.130 Y126.489 E0.27629
G1 X139.130 Y125.952 E0.01697
G1 X133.199 Y120.021 E0.26492
G1 X133.405 Y119.690 E0.01233
G1 X139.130 Y125.415 E0.25575
G1 X139.130 Y124.878 E0.01697
G1 X133.586 Y119.334 E0.24766
G1 X133.736 Y118.946 E0.01312
G1 X139.130 Y124.341 E0.24096
G1 X139.130 Y123.803 E0.01697
G1 X133.824 Y118.498 E0.23701
G1 X133.859 Y118.311 E0.00599
G1 X133.859 Y117.995 E0.00998
G1 X139.130 Y123.266 E0.23545
G1 X139.130 Y122.729 E0.01697
G1 X133.806 Y117.405 E0.23782
G1 X133.745 Y117.077 E0.01055
G1 X133.574 Y116.635 E0.01495
G1 X139.130 Y122.192 E0.24820
G1 X139.130 Y121.655 E0.01697
G1 X126.345 Y108.870 E0.57108
M73 Q0 S213
M73 P0 R211
G1 X126.883 Y108.870 E0.01697
G1 X139.130 Y121.117 E0.54709
G1 X139.130 Y120.580 E0.01697
G1 X127.420 Y108.870 E0.52309
G1 X127.957 Y108.870 E0.01697
G1 X139.130 Y120.043 E0.49909
G1 X139.130 Y119.506 E0.01697
G1 X128.494 Y108.870 E0.47510
G1 X129.032 Y108.870 E0.01697
G1 X139.130 Y118.968 E0.45110
G1 X139.130 Y118.431 E0.01697
G1 X129.569 Y108.870 E0.42710
G1 X130.106 Y108.870 E0.01697
G1 X139.130 Y117.894 E0.40310
G1 X139.130 Y117.357 E0.01697
G1 X130.643 Y108.870 E0.37911
G1 X131.180 Y108.870 E0.01697
G1 X139.130 Y116.820 E0.35511
G1 X139.130 Y116.282 E0.01697
G1 X131.718 Y108.870 E0.33111
G1 X132.255 Y108.870 E0.01697
G1 X139.130 Y115.745 E0.30712
G1 X139.130 Y115.208 E0.01697
G1 X132.792 Y108.870 E0.28312
G1 X133.329 Y108.870 E0.01697
G1 X139.130 Y114.671 E0.25912
G1 X139.130 Y114.134 E0.01697
G1 X133.866 Y108.870 E0.23513
G1 X134.404 Y108.870 E0.01697
G1 X139.130 Y113.596 E0.21113
G1 X139.130 Y113.059 E0.01697
G1 X134.941 Y108.870 E0.18713
G1 X135.478 Y108.870 E0.01697
G1 X139.130 Y112.522 E0.16314
G1 X139.130 Y111.985 E0.01697
G1 X136.015 Y108.870 E0.13914
G1 X136.552 Y108.870 E0.01697
G1 X139.130 Y111.448 E0.11514
G1 X139.130 Y110.910 E0.01697
G1 X137.090 Y108.870 E0.09115
G1 X137.627 Y108.870 E0.01697
G1 X139.130 Y110.373 E0.06715
G1 X139.130 Y109.836 E0.01697
G1 X138.164 Y108.870 E0.04315
G1 X138.701 Y108.870 E0.01697
G1 X139.300 Y109.468 E0.02673
G1 F8640
G1 X138.701 Y108.870 E-0.19544
G1 X138.164 Y108.870 E-0.12404
G1 X139.130 Y109.836 E-0.31545
G1 X139.130 Y110.373 E-0.12404
G1 X139.127 Y110.370 E-0.00103
G1 E-0.04000 F2100.00000
G1 Z0.800 F10800.000
G1 X132.304 Y115.365
G1 Z0.200
G1 E0.80000 F2100.00000
G1 F1200
G1 X125.808 Y108.870 E0.29014
G1 X125.271 Y108.870 E0.01697
G1 X131.081 Y114.680 E0.25955
G1 X130.491 Y114.627 E0.01872
G1 X124.734 Y108.870 E0.25718
G1 X124.197 Y108.870 E0.01697
G1 X130.000 Y114.673 E0.25921
G1 X129.880 Y114.684 E0.00379
G1 X129.563 Y114.774 E0.01040
G1 X123.659 Y108.870 E0.26373
G1 X123.122 Y108.870 E0.01697
G1 X129.165 Y114.912 E0.26991
G1 X128.806 Y115.091 E0.01265
G1 X122.585 Y108.870 E0.27789
G1 X122.048 Y108.870 E0.01697
G1 X128.488 Y115.310 E0.28768
G1 X128.189 Y115.549 E0.01207
G1 X121.511 Y108.870 E0.29833
G1 X120.973 Y108.870 E0.01697
G1 X127.933 Y115.830 E0.31089
G1 X127.808 Y115.967 E0.00587
G1 X127.703 Y116.137 E0.00630
G1 X120.436 Y108.870 E0.32460
G1 X119.899 Y108.870 E0.01697
G1 X127.497 Y116.468 E0.33942
G1 X127.343 Y116.851 E0.01303
G1 X119.362 Y108.870 E0.35651
G1 X118.824 Y108.870 E0.01697
G1 X127.220 Y117.265 E0.37502
G1 X127.141 Y117.723 E0.01468
G1 X118.287 Y108.870 E0.39548
G1 X117.750 Y108.870 E0.01697
G1 X127.141 Y118.261 E0.41948
G1 X127.253 Y118.910 E0.02080
G1 X117.213 Y108.870 E0.44847
G1 X116.676 Y108.870 E0.01697
G1 X134.936 Y127.130 E0.81567
G1 X134.399 Y127.130 E0.01697
G1 X116.138 Y108.870 E0.81567
G1 X115.601 Y108.870 E0.01697
G1 X133.861 Y127.130 E0.81567
G1 X133.324 Y127.130 E0.01697
G1 X115.064 Y108.870 E0.81567
G1 X114.527 Y108.870 E0.01697
G1 X120.429 Y114.772 E0.26363
G1 X120.120 Y114.684 E0.01014
G1 X119.771 Y114.652 E0.01106
G1 X113.990 Y108.870 E0.25826
G1 X113.452 Y108.870 E0.01697
G1 X119.234 Y114.651 E0.25824
G1 X118.880 Y114.684 E0.01121
G1 X118.763 Y114.717 E0.00386
G1 X112.915 Y108.870 E0.26120
G1 X112.378 Y108.870 E0.01697
G1 X118.344 Y114.836 E0.26652
G1 X117.977 Y115.006 E0.01279
G1 X111.841 Y108.870 E0.27409
G1 X111.304 Y108.870 E0.01697
G1 X117.634 Y115.200 E0.28276
G1 X117.328 Y115.431 E0.01211
G1 X110.870 Y108.973 E0.28846
G1 X110.870 Y109.511 E0.01697
G1 X117.055 Y115.696 E0.27629
G1 X116.801 Y115.979 E0.01202
G1 X110.870 Y110.048 E0.26492
G1 X110.870 Y110.585 E0.01697
G1 X116.595 Y116.310 E0.25575
